X:519
T:Ay de mi Alhama
T:Paseabase el rey moro
Z:Jack Campin, http://www.campin.me.uk/
F:Jack Campin's Nine-Note Tunebook
% last edit 03-02-2013
Z:Luis Narvaez
G:lament for the fall of Granada to the Christians, 1482
M:C
L:1/8
Q:1/4=100
K:EPhr
Ac |B3     G A2   B2 |c3 B A2
Ac |B3     G A2   B2 |c3 B A2
Ac |B2    G2 E2   E2 |F3 E D2
DD |E2    E2 F2   G2 |A4   A2||
G>F|E/D/ F>E E2 D E2-|E4-  E2|]

